!!!!SEGMENT: pl-kk--kk-i-277--002-004_anonim--rorate-caeli-tollite-portas.krn
!!!id: 16xx:1086
!!!COM: Anonim
!!!COM-rism: pe30004985
!!!CDT:
!!!CNT:
!!!OTL: Rorate caeli – Tollite portas
!!!PDT:
!!!SMS-siglum: PL-Kk
!!!SMS-shelfmark: Kk.I.277
!!!NIFC-rismID: 1001147188
!!!URL-scan: http://repozytorium.nifc.pl/skany/pl-kk-nut--i-277
!!!ONB-nifc: UWAGA: Introitus Secundi officii od str. 5. części: 1. Rorate caeli (Rorate caeli + Benedixisti + Gloria patri), 2. Kyrie, 3. Et in terra, 4. Tollite portas, 5. Alleluia, 6. Mittit ad virginem, 7. Ave Maria, 8. Sanctus, 9. Agnus Dei, 10. Ecce virgo
!!!SMS-variant:
!!!SMS-altvar:
**kern	**text
*I"[Tenore]	*
*I'[T]	*
*clefC4	*
*k[]	*
*M2/1	*
*met(C)	*
=1-	=1-
!LO:TX:a:t=P:problem:inicjał T przed kluczem	!
1G	Tol-
*lig	*
1c	.
=2-	=2-
1A	.
*Xlig	*
1A	-li-
=3-	=3-
1A,<	-te
*lig	*
1c	Por-
=4-	=4-
1A	.
*Xlig	*
*lig	*
1B	.
=5-	=5-
1c	.
*Xlig	*
1A	.
=6-	=6-
!LO:SIC:v:t=custos c	!
1G	.
!LO:PB:g=original	!
*lig	*
1c	.
=7-	=7-
1G	.
*Xlig	*
*lig	*
1A	.
=8-	=8-
1c	.
*Xlig	*
1A	-tas
=9-	=9-
*lig	*
1c	Prin-
1A	.
*Xlig	*
=10-	=10-
*lig	*
1c	.
1d	.
*Xlig	*
=11-	=11-
1e	.
*lig	*
1c	ci-
=12-	=12-
1B	.
*Xlig	*
1A	.
=13-	=13-
*lig	*
1A	-pes
1G	.
*Xlig	*
=14-	=14-
*lig	*
1c	.
1A	.
*Xlig	*
=15-	=15-
1G,<	.
*lig	*
1G	Ve-
=16-	=16-
1F	.
*Xlig	*
1G	.
=17-	=17-
*lig	*
1A	.
1G	.
*Xlig	*
=18-	=18-
1A	.
*lig	*
1A	-ſtras
=19-	=19-
1F	.
*Xlig	*
1G	.
=20-	=20-
!LO:SIC:v:t=custos B	!
1A	.
!LO:LB:g=original	!
*lig	*
1B	.
=21-	=21-
1c	.
*Xlig	*
*lig	*
1A	.
=22-	=22-
1G	.
*Xlig	*
1A	.
=23-	=23-
1c	.
*lig	*
1d	.
=24-	=24-
1c	.
*Xlig	*
*lig	*
1c	.
=25-	=25-
1A	.
*Xlig	*
*lig	*
1c	.
=26-	=26-
1A,<	.
*Xlig	*
1c	et
=27-	=27-
1c	e-
*lig	*
1c	-le-
=28-	=28-
1d	.
*Xlig	*
*lig	*
1d	-ua-
=29-	=29-
1B	.
*Xlig	*
*lig	*
1c	.
=30-	=30-
1A	.
*Xlig	*
*lig	*
1G	-mi-
=31-	=31-
1A	.
*Xlig	*
1A,<	-ni
=32-	=32-
*lig	*
1c	Por-
1A	.
*Xlig	*
=33-	=33-
1c	.
*lig	*
1d	.
=34-	=34-
1A	.
!LO:LB:g=original	!
*Xlig	*
*lig	*
1d	.
=35-	=35-
1e	.
*Xlig	*
*lig	*
1c	-tae
=36-	=36-
1A	.
*Xlig	*
*lig	*
1c	.
=37-	=37-
1B	.
*Xlig	*
*lig	*
1c	.
=38-	=38-
1A,<	.
*Xlig	*
1A	ae-
=39-	=39-
*lig	*
1c	-ter-
1A	.
*Xlig	*
=40-	=40-
1c	.
1c	-na-
=41-	=41-
1c	-les
0A	.
=42-	=42-
.	.
*lig	*
1c	.
=43-	=43-
1d	.
*Xlig	*
1c	.
=44-	=44-
1d	.
*lig	*
1e	.
=45-	=45-
1c	.
*Xlig	*
1c	.
=46-	=46-
*lig	*
1d	.
1c,<	.
*Xlig	*
=47-	=47-
1c	et
1c	in-
!LO:LB:g=original	!
=48-	=48-
1c	-tro-
*lig	*
1c	-i-
=49-	=49-
1B	.
*Xlig	*
*lig	*
1d	.
=50-	=50-
1e	.
*Xlig	*
*lig	*
1c	.
=51-	=51-
1B	.
*Xlig	*
*lig	*
1d	.
=52-	=52-
1c	.
*Xlig	*
1d	.
=53-	=53-
1c	.
1B	.
=54-	=54-
1A	-bit
1A	.
=55-	=55-
*lig	*
1c	.
1A	.
*Xlig	*
=56-	=56-
1G	.
1A	.
=57-	=57-
*lig	*
1c	.
1A	.
*Xlig	*
=58-	=58-
0c	.
=59-	=59-
*lig	*
1B	.
1A,<	.
*Xlig	*
=60-	=60-
1c	Rex
0G	.
=61-	=61-
.	.
1F,<	.
=62-	=62-
1F	.
!LO:LB:g=original	!
*lig	*
1G	.
=63-	=63-
1A	.
*Xlig	*
1c	.
=64-	=64-
*lig	*
1B	.
1A	.
*Xlig	*
=65-	=65-
*lig	*
1c	.
1G	.
*Xlig	*
=66-	=66-
1A	.
*lig	*
1c	glo-
=67-	=67-
1A	.
*Xlig	*
*lig	*
1c	-ri-
=68-	=68-
1d	.
*Xlig	*
*lig	*
1d	-ae
=69-	=69-
1c	.
*Xlig	*
*lig	*
1d	.
=70-	=70-
1e	.
*Xlig	*
0d	.
=71-	=71-
.	.
!LO:TX:t=P:problem:kreska pseudotaktowa	!
!LO:TX:t=P:problem:wykreślony fragment	!
1c	.
!LO:LB:g=original	!
=72-	=72-
*M2/1	*
*met(C)	*
!LO:TX:a:t=P:problem:inicjał Q przed oznaczeniem metrycznym	!
1A	Quis
1A	a-
=73-	=73-
*lig	*
1c	-ſcen-
1B	.
*Xlig	*
=74-	=74-
*lig	*
1c	.
1d	.
*Xlig	*
=75-	=75-
1d,<	-det
1d	in
=76-	=76-
1d	mon-
1d	-tem
=77-	=77-
*lig	*
1d	Do-
1c	.
*Xlig	*
=78-	=78-
!LO:SIC:v:t=custos e	!
1d	.
!LO:LB:g=original	!
1e	.
=79-	=79-
*lig	*
1f	.
1d	.
*Xlig	*
=80-	=80-
1c	.
*lig	*
1c	.
=81-	=81-
1d	.
*Xlig	*
*lig	*
1e	.
=82-	=82-
1d	.
*Xlig	*
1e	.
=83-	=83-
1e	.
*lig	*
1f	.
=84-	=84-
1e	.
*Xlig	*
1c	.
=85-	=85-
*lig	*
1e	.
1d	.
*Xlig	*
=86-	=86-
*lig	*
1f	.
1e	.
*Xlig	*
=87-	=87-
1d	-mi-
*lig	*
1f	-ni
=88-	=88-
1e	.
*Xlig	*
1d,<	.
=89-	=89-
1d	a-
*lig	*
1f	-ut
=90-	=90-
1d	.
*Xlig	*
1e	.
=91-	=91-
*lig	*
1f	quis
1e	.
*Xlig	*
=92-	=92-
1d	ſta-
1d	-bit
!LO:LB:g=original	!
=93-	=93-
1d	in
1d	lo-
=94-	=94-
1d	-co
1d	San-
=95-	=95-
*lig	*
1d	.
1e	.
*Xlig	*
=96-	=96-
*lig	*
1e	-cto
1c	.
*Xlig	*
=97-	=97-
*lig	*
1e	e-
1d	.
*Xlig	*
=98-	=98-
0c	.
=99-	=99-
1A	.
*lig	*
1c	.
=100-	=100-
1A	.
*Xlig	*
1c	.
=101-	=101-
*lig	*
1d	.
1e	.
*Xlig	*
=102-	=102-
*lig	*
1d	.
1c	.
*Xlig	*
=103-	=103-
*lig	*
1e	.
1d	.
*Xlig	*
=104-	=104-
1c	.
*lig	*
1d	.
=105-	=105-
1A	.
*Xlig	*
1A,<	-ius
=106-	=106-
1c	in-
1c	-no-
!LO:PB:g=original	!
=107-	=107-
*lig	*
1c	-cens
1d	.
*Xlig	*
=108-	=108-
*lig	*
1d	Ma-
1c	.
*Xlig	*
=109-	=109-
*lig	*
1B	.
1G	.
*Xlig	*
=110-	=110-
1A	.
*lig	*
1c	.
=111-	=111-
1B	.
*Xlig	*
1G	.
=112-	=112-
1A	.
*lig	*
1c	.
=113-	=113-
1B	.
*Xlig	*
*lig	*
1d	.
=114-	=114-
1e	.
*Xlig	*
1c	.
=115-	=115-
1B	.
1A	-ni-
=116-	=116-
0A	-bus.
=117-	=117-
*lig	*
*	*ij
1c	Ma-
1A	.
*Xlig	*
=118-	=118-
1G	.
1A	.
=119-	=119-
0c	.
=120-	=120-
1A	.
0c	.
=121-	=121-
.	.
1A	.
=122-	=122-
1c	-ni-
!LO:LB:g=original	!
*lig	*
1G	-bus
*	*Xij
=123-	=123-
1F	.
*Xlig	*
1F	et
=124-	=124-
*lig	*
1G	.
1A	.
*Xlig	*
=125-	=125-
*lig	*
1c	.
1B	.
*Xlig	*
=126-	=126-
1A	.
1c	.
=127-	=127-
1G	mun-
1A	-do
=128-	=128-
*lig	*
1c	Cor-
1A	.
*Xlig	*
=129-	=129-
*lig	*
1c	.
1d	.
*Xlig	*
=130-	=130-
*lig	*
1d	.
1e	.
*Xlig	*
=131-	=131-
*lig	*
1c	.
1B	.
*Xlig	*
=132-	=132-
1c	.
1d	-de
=133-	=133-
*	*ij
1G	mun-
1A	-do
=134-	=134-
0c	Cor-
=135-	=135-
*lig	*
1e	.
1d	.
*Xlig	*
=136-	=136-
0c	.
=137-	=137-
*lig	*
1e	.
1d	.
!LO:LB:g=original	!
*Xlig	*
=138-	=138-
0c	.
=139-	=139-
*lig	*
1B	.
1A	.
*Xlig	*
=140-	=140-
1B	.
0c	.
=141-	=141-
.	.
1A;;l	-de
*	*Xij
=-	=-
*-	*-
!!!RDF**kern: l = terminal long
!!!RDF**kern: > = above
!!!RDF**kern: < = below
!!!EED: Antoni Szymański
!!!EST: 2021-03-28
!!!ENC: Katarzyna Serwa
!!!END: 2021-03-15
